z-union/img/icons/tab-icons/tab-icon-10.svg

<svg width="54" height="52" viewBox="0 0 54 52" fill="none" xmlns="http://www.w3.org/2000/svg">
<path d="M49.069 24.7119H4.4458V26.8817H49.069V24.7119Z" fill="#232322"/>
<path d="M27.8421 4.44629H25.6724V47.1453H27.8421V4.44629Z" fill="#232322"/>
<path d="M49.069 3.36035H4.4458V5.5301H49.069V3.36035Z" fill="#232322"/>
<path d="M49.069 46.5518H4.4458V48.7215H49.069V46.5518Z" fill="#232322"/>
<path d="M50.1742 47.1459H48.0045V6.985L27.5351 26.5742C27.1053 26.9836 26.4503 26.9836 26.0409 26.5742L5.57153 6.985V47.1459H3.36084V4.44682C3.36084 4.01696 3.62694 3.62803 4.01586 3.44381C4.40478 3.28005 4.87557 3.36194 5.18261 3.64851L26.7573 24.3021L48.332 3.66897C48.639 3.36193 49.1098 3.28007 49.4988 3.4643C49.9081 3.62805 50.1538 4.03742 50.1538 4.46728V47.1459H50.1742Z" fill="#C63432"/>
<path d="M4.44584 7.80281C6.29984 7.80281 7.80281 6.29984 7.80281 4.44584C7.80281 2.59183 6.29984 1.08887 4.44584 1.08887C2.59184 1.08887 1.08887 2.59183 1.08887 4.44584C1.08887 6.29984 2.59184 7.80281 4.44584 7.80281Z" fill="#151514"/>
<path d="M4.44611 8.88759C4.3847 8.88759 4.34376 8.88759 4.28235 8.88759C3.09513 8.84665 1.98979 8.33491 1.19148 7.4752C0.372708 6.61549 -0.0366787 5.46921 0.00425997 4.28199C0.0861373 1.82567 2.17401 -0.0984455 4.60986 0.00390119C7.06618 0.0857785 8.9903 2.15318 8.88795 4.6095C8.84702 5.79672 8.33528 6.90206 7.47557 7.70036C6.6568 8.4782 5.59239 8.88759 4.44611 8.88759ZM4.44611 2.17365C3.23842 2.17365 2.21495 3.13569 2.17401 4.36385C2.15354 4.97793 2.35823 5.55108 2.78809 6.0014C3.19748 6.45173 3.77062 6.69737 4.36423 6.71784C4.99878 6.73831 5.55145 6.53361 6.00178 6.10376C6.4521 5.6739 6.69773 5.12122 6.7182 4.52761C6.75914 3.27898 5.77661 2.21459 4.52798 2.17365C4.50751 2.17365 4.48705 2.17365 4.44611 2.17365Z" fill="#C63432"/>
<path d="M4.44584 50.5011C6.29984 50.5011 7.80281 48.9981 7.80281 47.1441C7.80281 45.2901 6.29984 43.7871 4.44584 43.7871C2.59184 43.7871 1.08887 45.2901 1.08887 47.1441C1.08887 48.9981 2.59184 50.5011 4.44584 50.5011Z" fill="#151514"/>
<path d="M4.44562 51.5864C4.38421 51.5864 4.34327 51.5864 4.28186 51.5864C3.09464 51.5455 1.9893 51.0338 1.19099 50.174C0.37222 49.2939 -0.037167 48.168 0.00377169 46.9808C0.0856491 44.5245 2.19399 42.6209 4.60937 42.7027C5.7966 42.7437 6.90194 43.2554 7.70025 44.1151C8.51902 44.9953 8.92841 46.1211 8.88747 47.3083C8.84653 48.4956 8.3348 49.6009 7.47508 50.3992C6.65631 51.177 5.57143 51.5864 4.44562 51.5864ZM4.44562 44.8725C3.21746 44.8725 2.21446 45.8345 2.17352 47.0627C2.13258 48.3113 3.11511 49.3757 4.36374 49.4167C4.99829 49.4576 5.55096 49.2325 6.00129 48.8026C6.45162 48.3932 6.69725 47.8201 6.71772 47.2264C6.73819 46.6328 6.53349 46.0392 6.10364 45.5889C5.69425 45.1386 5.12111 44.893 4.5275 44.8725C4.50703 44.8725 4.48656 44.8725 4.44562 44.8725Z" fill="#C63432"/>
<path d="M49.0894 7.80281C50.9434 7.80281 52.4464 6.29984 52.4464 4.44584C52.4464 2.59183 50.9434 1.08887 49.0894 1.08887C47.2354 1.08887 45.7324 2.59183 45.7324 4.44584C45.7324 6.29984 47.2354 7.80281 49.0894 7.80281Z" fill="#151514"/>
<path d="M49.0892 8.88759C49.0278 8.88759 48.9868 8.88759 48.9254 8.88759C47.7382 8.84665 46.6329 8.33491 45.8345 7.4752C45.0158 6.61549 44.6064 5.46921 44.6473 4.28199C44.7292 1.82567 46.8375 -0.0984455 49.2529 0.00390119C50.4402 0.0448399 51.5455 0.556578 52.3438 1.41629C53.1626 2.29647 53.572 3.42228 53.531 4.6095C53.4287 7.00442 51.4636 8.88759 49.0892 8.88759ZM49.0892 2.17365C47.8815 2.17365 46.858 3.13569 46.8171 4.36385C46.7966 4.97793 47.0013 5.55108 47.4312 6.0014C47.8405 6.45173 48.4137 6.69737 49.0073 6.71784C50.2559 6.75878 51.3203 5.77624 51.3613 4.52761C51.4022 3.27898 50.4197 2.21459 49.1711 2.17365C49.1301 2.17365 49.1096 2.17365 49.0892 2.17365Z" fill="#C63432"/>
<path d="M49.0894 29.2667C50.9434 29.2667 52.4464 27.7637 52.4464 25.9097C52.4464 24.0557 50.9434 22.5527 49.0894 22.5527C47.2354 22.5527 45.7324 24.0557 45.7324 25.9097C45.7324 27.7637 47.2354 29.2667 49.0894 29.2667Z" fill="#151514"/>
<path d="M49.0892 30.3515C49.0278 30.3515 48.9868 30.3515 48.9254 30.3515C47.7382 30.3105 46.6329 29.7988 45.8345 28.9391C45.0158 28.0794 44.6064 26.9331 44.6473 25.7459C44.7292 23.2895 46.8375 21.3654 49.2529 21.4678C50.4402 21.5087 51.5455 22.0204 52.3438 22.8802C53.1626 23.7603 53.572 24.8861 53.531 26.0734C53.4287 28.4683 51.4636 30.3515 49.0892 30.3515ZM49.0892 23.6375C47.8815 23.6375 46.858 24.5996 46.8171 25.8277C46.7966 26.4418 47.0013 27.0149 47.4312 27.4653C47.8405 27.9156 48.4137 28.1612 49.0073 28.1817C50.2559 28.2226 51.3203 27.2401 51.3613 25.9915C51.4022 24.7428 50.4197 23.6785 49.1711 23.6375C49.1301 23.6375 49.1096 23.6375 49.0892 23.6375Z" fill="#C63432"/>
<path d="M4.44486 29.2667C6.29887 29.2667 7.80184 27.7637 7.80184 25.9097C7.80184 24.0557 6.29887 22.5527 4.44486 22.5527C2.59086 22.5527 1.08789 24.0557 1.08789 25.9097C1.08789 27.7637 2.59086 29.2667 4.44486 29.2667Z" fill="#151514"/>
<path d="M4.44464 30.3515C4.38323 30.3515 4.3423 30.3515 4.28089 30.3515C3.09367 30.3105 1.98832 29.7988 1.19002 28.9391C0.371243 28.0794 -0.0381436 26.9331 0.00279513 25.7459C0.0846725 23.2895 2.19302 21.3654 4.6084 21.4678C5.79562 21.5087 6.90097 22.0204 7.69927 22.8802C8.51804 23.7603 8.92743 24.8861 8.88649 26.0734C8.78415 28.4683 6.81909 30.3515 4.44464 30.3515ZM4.44464 23.6375C3.23695 23.6375 2.21349 24.5996 2.17255 25.8277C2.15208 26.4418 2.35677 27.0149 2.78663 27.4653C3.19601 27.9156 3.76916 28.1612 4.36277 28.1817C5.6114 28.2226 6.6758 27.2401 6.71674 25.9915C6.75768 24.7428 5.77515 23.6785 4.52652 23.6375C4.48558 23.6375 4.46511 23.6375 4.44464 23.6375Z" fill="#C63432"/>
<path d="M26.7574 29.1534C28.6114 29.1534 30.1143 27.6504 30.1143 25.7964C30.1143 23.9424 28.6114 22.4395 26.7574 22.4395C24.9034 22.4395 23.4004 23.9424 23.4004 25.7964C23.4004 27.6504 24.9034 29.1534 26.7574 29.1534Z" fill="#151514"/>
<path d="M26.7776 30.238C26.7162 30.238 26.6753 30.238 26.6139 30.238C25.4267 30.1971 24.3213 29.6854 23.523 28.8257C22.7043 27.9455 22.2949 26.8197 22.3358 25.6324C22.3767 24.4452 22.8885 23.3399 23.7482 22.5416C24.6284 21.7228 25.7747 21.3134 26.9414 21.3544C29.3977 21.4362 31.3218 23.5036 31.2195 25.96C31.1786 27.1472 30.6668 28.2525 29.8071 29.0509C28.9679 29.8287 27.9035 30.238 26.7776 30.238ZM26.7572 23.5241C25.5495 23.5241 24.526 24.4862 24.4851 25.7143C24.4646 26.3284 24.6693 26.9016 25.0992 27.3519C25.5086 27.8022 26.0817 28.0478 26.6753 28.0683C27.2689 28.0888 27.8625 27.8841 28.3129 27.4542C28.7632 27.0448 29.0088 26.4717 29.0293 25.8781C29.0702 24.6295 28.0877 23.565 26.8391 23.5241C26.8186 23.5241 26.7981 23.5241 26.7572 23.5241Z" fill="#C63432"/>
<path d="M49.0894 50.5011C50.9434 50.5011 52.4464 48.9981 52.4464 47.1441C52.4464 45.2901 50.9434 43.7871 49.0894 43.7871C47.2354 43.7871 45.7324 45.2901 45.7324 47.1441C45.7324 48.9981 47.2354 50.5011 49.0894 50.5011Z" fill="#151514"/>
<path d="M49.0893 51.5867C49.0279 51.5867 48.987 51.5867 48.9255 51.5867C46.4692 51.5048 44.5451 49.4374 44.6475 46.9811C44.6884 45.7939 45.2001 44.6885 46.0598 43.8902C46.94 43.0714 48.0863 42.6621 49.2531 42.703C50.4403 42.7439 51.5456 43.2556 52.3439 44.1153C53.1627 44.9955 53.5721 46.1214 53.5312 47.3086C53.4288 49.7035 51.4637 51.5867 49.0893 51.5867ZM49.0688 44.8727C48.4957 44.8727 47.943 45.0774 47.5132 45.4868C47.0628 45.8962 46.8172 46.4693 46.7967 47.0629C46.7558 48.3116 47.7383 49.376 48.987 49.4169C50.2765 49.4579 51.3 48.4753 51.3409 47.2267C51.3614 46.6126 51.1567 46.0395 50.7269 45.5891C50.3175 45.1388 49.7443 44.8932 49.1507 44.8727C49.1302 44.8727 49.1098 44.8727 49.0688 44.8727Z" fill="#C63432"/>
<path d="M26.5733 50.4699C28.416 50.4699 29.9098 48.9761 29.9098 47.1334C29.9098 45.2907 28.416 43.7969 26.5733 43.7969C24.7306 43.7969 23.2368 45.2907 23.2368 47.1334C23.2368 48.9761 24.7306 50.4699 26.5733 50.4699Z" fill="#151514"/>
<path d="M26.573 51.5554C26.5116 51.5554 26.4706 51.5554 26.4092 51.5554C25.222 51.5144 24.1371 51.0232 23.3388 50.143C22.5405 49.2833 22.1107 48.1575 22.1516 46.9703C22.1925 45.783 22.6838 44.6982 23.564 43.8999C24.4237 43.1016 25.5495 42.6717 26.7367 42.7126C27.924 42.7536 29.0088 43.2448 29.8071 44.125C30.6054 44.9847 31.0353 46.1106 30.9944 47.2978C30.9534 48.485 30.4622 49.5699 29.582 50.3682C28.7632 51.1256 27.6988 51.5554 26.573 51.5554ZM26.573 44.8824C25.9998 44.8824 25.4676 45.0871 25.0378 45.4965C24.5875 45.9059 24.3418 46.4585 24.3214 47.0726C24.3009 47.6662 24.5056 48.2598 24.915 48.6897C25.3244 49.14 25.877 49.3857 26.4911 49.4061C27.1052 49.4266 27.6783 49.2219 28.1082 48.8125C28.5585 48.4031 28.8041 47.8504 28.8246 47.2363C28.8451 46.6427 28.6404 46.0491 28.231 45.6193C27.8216 45.169 27.2689 44.9233 26.6549 44.9028C26.6344 44.8824 26.5935 44.8824 26.573 44.8824Z" fill="#232321"/>
<path d="M26.5733 7.97866C28.416 7.97866 29.9098 6.48488 29.9098 4.64218C29.9098 2.79948 28.416 1.30566 26.5733 1.30566C24.7306 1.30566 23.2368 2.79948 23.2368 4.64218C23.2368 6.48488 24.7306 7.97866 26.5733 7.97866Z" fill="#151514"/>
<path d="M26.573 9.06417C26.5116 9.06417 26.4706 9.06417 26.4092 9.06417C25.222 9.02323 24.1371 8.53199 23.3388 7.65181C22.5405 6.7921 22.1107 5.66628 22.1516 4.47906C22.1925 3.29183 22.6838 2.20696 23.564 1.40865C24.4237 0.61035 25.5495 0.18049 26.7367 0.221428C27.924 0.262367 29.0088 0.753636 29.8071 1.63382C30.6054 2.49353 31.0353 3.61935 30.9944 4.80657C30.9534 5.99379 30.4622 7.07867 29.582 7.87697C28.7632 8.63434 27.6988 9.06417 26.573 9.06417ZM26.573 2.39117C25.9998 2.39117 25.4676 2.59587 25.0378 3.00526C24.5875 3.41465 24.3418 3.96733 24.3214 4.58141C24.3009 5.17502 24.5056 5.76862 24.915 6.19847C25.3244 6.6488 25.877 6.89444 26.4911 6.91491C27.1052 6.93538 27.6783 6.73067 28.1082 6.32128C28.5585 5.9119 28.8041 5.35922 28.8246 4.74514C28.8451 4.15152 28.6404 3.55793 28.231 3.12807C27.8216 2.67775 27.2689 2.4321 26.6549 2.41163C26.6344 2.39116 26.5935 2.39117 26.573 2.39117Z" fill="#232321"/>
</svg>

<svg width="54" height="52" fill="none" xmlns="http://www.w3.org/2000/svg"><path d="M49.069 24.712H4.446v2.17h44.623v-2.17z" fill="#232322"/><path d="M27.842 4.446h-2.17v42.7h2.17v-42.7z" fill="#232322"/><path d="M49.069 3.36H4.446v2.17h44.623V3.36zm0 43.192H4.446v2.17h44.623v-2.17z" fill="#232322"/><path d="M50.174 47.146h-2.17V6.985l-20.469 19.59c-.43.409-1.085.409-1.494 0L5.57 6.984v40.16H3.36V4.448c0-.43.266-.819.655-1.003.389-.164.86-.082 1.167.205l21.574 20.653L48.332 3.67a1.033 1.033 0 011.167-.205c.41.164.655.573.655 1.003v42.679h.02z" fill="#C63432"/><path d="M4.446 7.803a3.357 3.357 0 100-6.714 3.357 3.357 0 000 6.714z" fill="#151514"/><path d="M4.446 8.888h-.164a4.417 4.417 0 01-3.09-1.413C.371 6.615-.038 5.47.003 4.282.086 1.826 2.174-.098 4.61.004A4.428 4.428 0 018.888 4.61 4.417 4.417 0 017.476 7.7c-.82.778-1.884 1.188-3.03 1.188zm0-6.714a2.277 2.277 0 00-2.272 2.19c-.02.614.184 1.187.614 1.637.41.45.983.696 1.576.717a2.188 2.188 0 001.638-.614c.45-.43.696-.983.716-1.576.041-1.249-.941-2.313-2.19-2.354h-.082z" fill="#C63432"/><path d="M4.446 50.501a3.357 3.357 0 100-6.714 3.357 3.357 0 000 6.714z" fill="#151514"/><path d="M4.446 51.586h-.164a4.417 4.417 0 01-3.091-1.412 4.41 4.41 0 01-1.187-3.193c.082-2.456 2.19-4.36 4.605-4.278A4.417 4.417 0 017.7 44.115a4.41 4.41 0 011.187 3.193A4.417 4.417 0 017.475 50.4a4.377 4.377 0 01-3.03 1.187zm0-6.713a2.264 2.264 0 00-2.272 2.19c-.041 1.248.941 2.313 2.19 2.354.634.04 1.187-.184 1.637-.614.45-.41.696-.983.717-1.577a2.248 2.248 0 00-.614-1.637 2.225 2.225 0 00-1.577-.716h-.081z" fill="#C63432"/><path d="M49.09 7.803a3.357 3.357 0 100-6.714 3.357 3.357 0 000 6.714z" fill="#151514"/><path d="M49.09 8.888h-.165a4.417 4.417 0 01-3.09-1.413c-.82-.86-1.229-2.006-1.188-3.193.082-2.456 2.19-4.38 4.606-4.278a4.417 4.417 0 013.09 1.412 4.409 4.409 0 011.188 3.193c-.102 2.395-2.067 4.279-4.442 4.279zm0-6.714a2.277 2.277 0 00-2.273 2.19c-.02.614.184 1.187.614 1.637.41.45.983.696 1.576.717 1.249.04 2.313-.942 2.354-2.19.041-1.249-.941-2.313-2.19-2.354h-.082z" fill="#C63432"/><path d="M49.09 29.267a3.357 3.357 0 100-6.714 3.357 3.357 0 000 6.714z" fill="#151514"/><path d="M49.09 30.352h-.165a4.418 4.418 0 01-3.09-1.413c-.82-.86-1.229-2.006-1.188-3.193.082-2.456 2.19-4.38 4.606-4.278a4.417 4.417 0 013.09 1.412 4.409 4.409 0 011.188 3.193c-.102 2.395-2.067 4.279-4.442 4.279zm0-6.715a2.277 2.277 0 00-2.273 2.19c-.02.615.184 1.188.614 1.638.41.45.983.696 1.576.717 1.249.04 2.313-.942 2.354-2.19.041-1.25-.941-2.314-2.19-2.355h-.082z" fill="#C63432"/><path d="M4.445 29.267a3.357 3.357 0 100-6.714 3.357 3.357 0 000 6.714z" fill="#151514"/><path d="M4.445 30.352H4.28a4.417 4.417 0 01-3.091-1.413c-.819-.86-1.228-2.006-1.187-3.193.082-2.456 2.19-4.38 4.605-4.278A4.417 4.417 0 017.7 22.88a4.409 4.409 0 011.187 3.193c-.102 2.395-2.067 4.279-4.441 4.279zm0-6.715a2.277 2.277 0 00-2.272 2.19c-.02.615.184 1.188.614 1.638.409.45.982.696 1.576.717 1.248.04 2.313-.942 2.354-2.19.04-1.25-.942-2.314-2.19-2.355h-.082z" fill="#C63432"/><path d="M26.757 29.153a3.357 3.357 0 100-6.713 3.357 3.357 0 000 6.713z" fill="#151514"/><path d="M26.778 30.238h-.164a4.417 4.417 0 01-3.091-1.412 4.41 4.41 0 01-1.187-3.194 4.44 4.44 0 014.606-4.278 4.428 4.428 0 014.277 4.606 4.417 4.417 0 01-1.412 3.09 4.413 4.413 0 01-3.03 1.188zm-.02-6.714a2.277 2.277 0 00-2.273 2.19 2.22 2.22 0 00.614 1.638c.41.45.983.696 1.576.716a2.248 2.248 0 001.638-.614c.45-.41.696-.982.716-1.576.041-1.248-.941-2.313-2.19-2.354h-.082z" fill="#C63432"/><path d="M49.09 50.501a3.357 3.357 0 100-6.714 3.357 3.357 0 000 6.714z" fill="#151514"/><path d="M49.09 51.587h-.165a4.428 4.428 0 01-4.277-4.606 4.441 4.441 0 014.606-4.278 4.417 4.417 0 013.09 1.412 4.41 4.41 0 011.187 3.194c-.102 2.395-2.067 4.278-4.442 4.278zm-.021-6.714c-.573 0-1.126.204-1.556.614-.45.41-.696.982-.716 1.576-.041 1.249.941 2.313 2.19 2.354a2.257 2.257 0 002.354-2.19 2.218 2.218 0 00-.614-1.638 2.225 2.225 0 00-1.576-.716h-.082z" fill="#C63432"/><path d="M26.573 50.47a3.336 3.336 0 100-6.673 3.336 3.336 0 000 6.673z" fill="#151514"/><path d="M26.573 51.555h-.164a4.29 4.29 0 01-3.07-1.412 4.415 4.415 0 01-1.187-3.173 4.29 4.29 0 011.412-3.07 4.416 4.416 0 013.173-1.187 4.29 4.29 0 013.07 1.412 4.416 4.416 0 011.187 3.173 4.29 4.29 0 01-1.412 3.07 4.421 4.421 0 01-3.009 1.187zm0-6.673c-.573 0-1.105.205-1.535.614-.45.41-.696.962-.717 1.577-.02.593.185 1.187.594 1.617.41.45.962.696 1.576.716a2.205 2.205 0 001.617-.593c.45-.41.696-.963.717-1.577a2.236 2.236 0 00-.594-1.617 2.189 2.189 0 00-1.576-.716c-.02-.02-.062-.02-.082-.02z" fill="#232321"/><path d="M26.573 7.979a3.336 3.336 0 100-6.673 3.336 3.336 0 000 6.673z" fill="#151514"/><path d="M26.573 9.064h-.164a4.29 4.29 0 01-3.07-1.412 4.416 4.416 0 01-1.187-3.173 4.29 4.29 0 011.412-3.07A4.415 4.415 0 0126.737.22a4.29 4.29 0 013.07 1.413 4.416 4.416 0 011.187 3.173 4.29 4.29 0 01-1.412 3.07 4.421 4.421 0 01-3.009 1.187zm0-6.673c-.573 0-1.105.205-1.535.614-.45.41-.696.962-.717 1.576-.02.594.185 1.188.594 1.617.41.45.962.696 1.576.717a2.205 2.205 0 001.617-.594c.45-.41.696-.962.717-1.576a2.236 2.236 0 00-.594-1.617 2.188 2.188 0 00-1.576-.716c-.02-.02-.062-.02-.082-.02z" fill="#232321"/></svg>
